P2
# Heat exchanger small
102 42
3
3 3 3 3 3 3 3 3 3 3 3 3 3 3 3 3 3 3 3 3 3 3 3 3 3 3 3 3 3 3 3 3 3 3 3 3 3 3 3 3 3 3 3 3 3 3 3 3 3 3 3 3 3 3 3 3 3 3 3 3 3 3 3 3 3 3 3 3 3 3 3 3 3 3 3 3 3 3 3 3 3 3 3 3 3 3 3 3 3 3 3 3 3 3 3 3 3 3 3 3 3 3
1 0 0 0 0 0 0 0 0 0 0 0 0 0 0 0 0 0 0 0 0 0 0 0 0 0 0 0 0 0 0 0 0 0 0 0 0 0 0 0 0 0 0 0 0 0 0 0 0 0 0 0 0 0 0 0 0 0 0 0 0 0 0 0 0 0 0 0 0 0 0 0 0 0 0 0 0 0 0 0 0 0 0 0 0 0 0 0 0 0 0 0 0 0 0 0 0 0 0 0 0 2
1 0 0 0 0 0 0 0 0 0 0 0 0 0 0 0 0 0 0 0 0 0 0 0 0 0 0 0 0 0 0 0 0 0 0 0 0 0 0 0 0 0 0 0 0 0 0 0 0 0 0 0 0 0 0 0 0 0 0 0 0 0 0 0 0 0 0 0 0 0 0 0 0 0 0 0 0 0 0 0 0 0 0 0 0 0 0 0 0 0 0 0 0 0 0 0 0 0 0 0 0 2
1 0 0 0 0 3 3 3 0 0 0 0 0 0 0 3 3 3 0 0 0 0 0 0 0 3 3 3 0 0 0 0 0 0 0 3 3 3 0 0 0 0 0 0 0 3 3 3 0 0 0 0 0 0 0 3 3 3 0 0 0 0 0 0 0 3 3 3 0 0 0 0 0 0 0 3 3 3 0 0 0 0 0 0 0 3 3 3 0 0 0 0 0 0 0 3 3 3 0 0 0 2
1 0 0 0 0 3 3 3 0 0 0 0 0 0 0 3 3 3 0 0 0 0 0 0 0 3 3 3 0 0 0 0 0 0 0 3 3 3 0 0 0 0 0 0 0 3 3 3 0 0 0 0 0 0 0 3 3 3 0 0 0 0 0 0 0 3 3 3 0 0 0 0 0 0 0 3 3 3 0 0 0 0 0 0 0 3 3 3 0 0 0 0 0 0 0 3 3 3 0 0 0 2
1 0 0 0 0 3 3 3 0 0 0 0 0 0 0 3 3 3 0 0 0 0 0 0 0 3 3 3 0 0 0 0 0 0 0 3 3 3 0 0 0 0 0 0 0 3 3 3 0 0 0 0 0 0 0 3 3 3 0 0 0 0 0 0 0 3 3 3 0 0 0 0 0 0 0 3 3 3 0 0 0 0 0 0 0 3 3 3 0 0 0 0 0 0 0 3 3 3 0 0 0 2
1 0 0 0 0 0 0 0 0 0 0 0 0 0 0 0 0 0 0 0 0 0 0 0 0 0 0 0 0 0 0 0 0 0 0 0 0 0 0 0 0 0 0 0 0 0 0 0 0 0 0 0 0 0 0 0 0 0 0 0 0 0 0 0 0 0 0 0 0 0 0 0 0 0 0 0 0 0 0 0 0 0 0 0 0 0 0 0 0 0 0 0 0 0 0 0 0 0 0 0 0 2
1 0 0 0 0 0 0 0 0 0 0 0 0 0 0 0 0 0 0 0 0 0 0 0 0 0 0 0 0 0 0 0 0 0 0 0 0 0 0 0 0 0 0 0 0 0 0 0 0 0 0 0 0 0 0 0 0 0 0 0 0 0 0 0 0 0 0 0 0 0 0 0 0 0 0 0 0 0 0 0 0 0 0 0 0 0 0 0 0 0 0 0 0 0 0 0 0 0 0 0 0 2
1 0 0 0 0 0 0 0 0 0 0 0 0 0 0 0 0 0 0 0 0 0 0 0 0 0 0 0 0 0 0 0 0 0 0 0 0 0 0 0 0 0 0 0 0 0 0 0 0 0 0 0 0 0 0 0 0 0 0 0 0 0 0 0 0 0 0 0 0 0 0 0 0 0 0 0 0 0 0 0 0 0 0 0 0 0 0 0 0 0 0 0 0 0 0 0 0 0 0 0 0 2
1 0 0 0 0 0 0 0 0 0 0 0 0 0 0 0 0 0 0 0 0 0 0 0 0 0 0 0 0 0 0 0 0 0 0 0 0 0 0 0 0 0 0 0 0 0 0 0 0 0 0 0 0 0 0 0 0 0 0 0 0 0 0 0 0 0 0 0 0 0 0 0 0 0 0 0 0 0 0 0 0 0 0 0 0 0 0 0 0 0 0 0 0 0 0 0 0 0 0 0 0 2
1 0 0 0 0 0 0 0 0 0 0 0 0 0 0 0 0 0 0 0 0 0 0 0 0 0 0 0 0 0 0 0 0 0 0 0 0 0 0 0 0 0 0 0 0 0 0 0 0 0 0 0 0 0 0 0 0 0 0 0 0 0 0 0 0 0 0 0 0 0 0 0 0 0 0 0 0 0 0 0 0 0 0 0 0 0 0 0 0 0 0 0 0 0 0 0 0 0 0 0 0 2
1 0 0 0 0 0 0 0 0 0 3 3 3 0 0 0 0 0 0 0 3 3 3 0 0 0 0 0 0 0 3 3 3 0 0 0 0 0 0 0 3 3 3 0 0 0 0 0 0 0 3 3 3 0 0 0 0 0 0 0 3 3 3 0 0 0 0 0 0 0 3 3 3 0 0 0 0 0 0 0 3 3 3 0 0 0 0 0 0 0 3 3 3 0 0 0 0 0 0 0 0 2
1 0 0 0 0 0 0 0 0 0 3 3 3 0 0 0 0 0 0 0 3 3 3 0 0 0 0 0 0 0 3 3 3 0 0 0 0 0 0 0 3 3 3 0 0 0 0 0 0 0 3 3 3 0 0 0 0 0 0 0 3 3 3 0 0 0 0 0 0 0 3 3 3 0 0 0 0 0 0 0 3 3 3 0 0 0 0 0 0 0 3 3 3 0 0 0 0 0 0 0 0 2
1 0 0 0 0 0 0 0 0 0 3 3 3 0 0 0 0 0 0 0 3 3 3 0 0 0 0 0 0 0 3 3 3 0 0 0 0 0 0 0 3 3 3 0 0 0 0 0 0 0 3 3 3 0 0 0 0 0 0 0 3 3 3 0 0 0 0 0 0 0 3 3 3 0 0 0 0 0 0 0 3 3 3 0 0 0 0 0 0 0 3 3 3 0 0 0 0 0 0 0 0 2
1 0 0 0 0 0 0 0 0 0 0 0 0 0 0 0 0 0 0 0 0 0 0 0 0 0 0 0 0 0 0 0 0 0 0 0 0 0 0 0 0 0 0 0 0 0 0 0 0 0 0 0 0 0 0 0 0 0 0 0 0 0 0 0 0 0 0 0 0 0 0 0 0 0 0 0 0 0 0 0 0 0 0 0 0 0 0 0 0 0 0 0 0 0 0 0 0 0 0 0 0 2
1 0 0 0 0 0 0 0 0 0 0 0 0 0 0 0 0 0 0 0 0 0 0 0 0 0 0 0 0 0 0 0 0 0 0 0 0 0 0 0 0 0 0 0 0 0 0 0 0 0 0 0 0 0 0 0 0 0 0 0 0 0 0 0 0 0 0 0 0 0 0 0 0 0 0 0 0 0 0 0 0 0 0 0 0 0 0 0 0 0 0 0 0 0 0 0 0 0 0 0 0 2
1 0 0 0 0 0 0 0 0 0 0 0 0 0 0 0 0 0 0 0 0 0 0 0 0 0 0 0 0 0 0 0 0 0 0 0 0 0 0 0 0 0 0 0 0 0 0 0 0 0 0 0 0 0 0 0 0 0 0 0 0 0 0 0 0 0 0 0 0 0 0 0 0 0 0 0 0 0 0 0 0 0 0 0 0 0 0 0 0 0 0 0 0 0 0 0 0 0 0 0 0 2
1 0 0 0 0 0 0 0 0 0 0 0 0 0 0 0 0 0 0 0 0 0 0 0 0 0 0 0 0 0 0 0 0 0 0 0 0 0 0 0 0 0 0 0 0 0 0 0 0 0 0 0 0 0 0 0 0 0 0 0 0 0 0 0 0 0 0 0 0 0 0 0 0 0 0 0 0 0 0 0 0 0 0 0 0 0 0 0 0 0 0 0 0 0 0 0 0 0 0 0 0 2
1 0 0 0 0 0 0 0 0 0 0 0 0 0 0 0 0 0 0 0 0 0 0 0 0 0 0 0 0 0 0 0 0 0 0 0 0 0 0 0 0 0 0 0 0 0 0 0 0 0 0 0 0 0 0 0 0 0 0 0 0 0 0 0 0 0 0 0 0 0 0 0 0 0 0 0 0 0 0 0 0 0 0 0 0 0 0 0 0 0 0 0 0 0 0 0 0 0 0 0 0 2
1 0 0 0 0 3 3 3 0 0 0 0 0 0 0 3 3 3 0 0 0 0 0 0 0 3 3 3 0 0 0 0 0 0 0 3 3 3 0 0 0 0 0 0 0 3 3 3 0 0 0 0 0 0 0 3 3 3 0 0 0 0 0 0 0 3 3 3 0 0 0 0 0 0 0 3 3 3 0 0 0 0 0 0 0 3 3 3 0 0 0 0 0 0 0 3 3 3 0 0 0 2
1 0 0 0 0 3 3 3 0 0 0 0 0 0 0 3 3 3 0 0 0 0 0 0 0 3 3 3 0 0 0 0 0 0 0 3 3 3 0 0 0 0 0 0 0 3 3 3 0 0 0 0 0 0 0 3 3 3 0 0 0 0 0 0 0 3 3 3 0 0 0 0 0 0 0 3 3 3 0 0 0 0 0 0 0 3 3 3 0 0 0 0 0 0 0 3 3 3 0 0 0 2
1 0 0 0 0 3 3 3 0 0 0 0 0 0 0 3 3 3 0 0 0 0 0 0 0 3 3 3 0 0 0 0 0 0 0 3 3 3 0 0 0 0 0 0 0 3 3 3 0 0 0 0 0 0 0 3 3 3 0 0 0 0 0 0 0 3 3 3 0 0 0 0 0 0 0 3 3 3 0 0 0 0 0 0 0 3 3 3 0 0 0 0 0 0 0 3 3 3 0 0 0 2
1 0 0 0 0 0 0 0 0 0 0 0 0 0 0 0 0 0 0 0 0 0 0 0 0 0 0 0 0 0 0 0 0 0 0 0 0 0 0 0 0 0 0 0 0 0 0 0 0 0 0 0 0 0 0 0 0 0 0 0 0 0 0 0 0 0 0 0 0 0 0 0 0 0 0 0 0 0 0 0 0 0 0 0 0 0 0 0 0 0 0 0 0 0 0 0 0 0 0 0 0 2
1 0 0 0 0 0 0 0 0 0 0 0 0 0 0 0 0 0 0 0 0 0 0 0 0 0 0 0 0 0 0 0 0 0 0 0 0 0 0 0 0 0 0 0 0 0 0 0 0 0 0 0 0 0 0 0 0 0 0 0 0 0 0 0 0 0 0 0 0 0 0 0 0 0 0 0 0 0 0 0 0 0 0 0 0 0 0 0 0 0 0 0 0 0 0 0 0 0 0 0 0 2
1 0 0 0 0 0 0 0 0 0 0 0 0 0 0 0 0 0 0 0 0 0 0 0 0 0 0 0 0 0 0 0 0 0 0 0 0 0 0 0 0 0 0 0 0 0 0 0 0 0 0 0 0 0 0 0 0 0 0 0 0 0 0 0 0 0 0 0 0 0 0 0 0 0 0 0 0 0 0 0 0 0 0 0 0 0 0 0 0 0 0 0 0 0 0 0 0 0 0 0 0 2
1 0 0 0 0 0 0 0 0 0 0 0 0 0 0 0 0 0 0 0 0 0 0 0 0 0 0 0 0 0 0 0 0 0 0 0 0 0 0 0 0 0 0 0 0 0 0 0 0 0 0 0 0 0 0 0 0 0 0 0 0 0 0 0 0 0 0 0 0 0 0 0 0 0 0 0 0 0 0 0 0 0 0 0 0 0 0 0 0 0 0 0 0 0 0 0 0 0 0 0 0 2
1 0 0 0 0 0 0 0 0 0 0 0 0 0 0 0 0 0 0 0 0 0 0 0 0 0 0 0 0 0 0 0 0 0 0 0 0 0 0 0 0 0 0 0 0 0 0 0 0 0 0 0 0 0 0 0 0 0 0 0 0 0 0 0 0 0 0 0 0 0 0 0 0 0 0 0 0 0 0 0 0 0 0 0 0 0 0 0 0 0 0 0 0 0 0 0 0 0 0 0 0 2
1 0 0 0 0 0 0 0 0 0 3 3 3 0 0 0 0 0 0 0 3 3 3 0 0 0 0 0 0 0 3 3 3 0 0 0 0 0 0 0 3 3 3 0 0 0 0 0 0 0 3 3 3 0 0 0 0 0 0 0 3 3 3 0 0 0 0 0 0 0 3 3 3 0 0 0 0 0 0 0 3 3 3 0 0 0 0 0 0 0 3 3 3 0 0 0 0 0 0 0 0 2
1 0 0 0 0 0 0 0 0 0 3 3 3 0 0 0 0 0 0 0 3 3 3 0 0 0 0 0 0 0 3 3 3 0 0 0 0 0 0 0 3 3 3 0 0 0 0 0 0 0 3 3 3 0 0 0 0 0 0 0 3 3 3 0 0 0 0 0 0 0 3 3 3 0 0 0 0 0 0 0 3 3 3 0 0 0 0 0 0 0 3 3 3 0 0 0 0 0 0 0 0 2
1 0 0 0 0 0 0 0 0 0 3 3 3 0 0 0 0 0 0 0 3 3 3 0 0 0 0 0 0 0 3 3 3 0 0 0 0 0 0 0 3 3 3 0 0 0 0 0 0 0 3 3 3 0 0 0 0 0 0 0 3 3 3 0 0 0 0 0 0 0 3 3 3 0 0 0 0 0 0 0 3 3 3 0 0 0 0 0 0 0 3 3 3 0 0 0 0 0 0 0 0 2
1 0 0 0 0 0 0 0 0 0 0 0 0 0 0 0 0 0 0 0 0 0 0 0 0 0 0 0 0 0 0 0 0 0 0 0 0 0 0 0 0 0 0 0 0 0 0 0 0 0 0 0 0 0 0 0 0 0 0 0 0 0 0 0 0 0 0 0 0 0 0 0 0 0 0 0 0 0 0 0 0 0 0 0 0 0 0 0 0 0 0 0 0 0 0 0 0 0 0 0 0 2
1 0 0 0 0 0 0 0 0 0 0 0 0 0 0 0 0 0 0 0 0 0 0 0 0 0 0 0 0 0 0 0 0 0 0 0 0 0 0 0 0 0 0 0 0 0 0 0 0 0 0 0 0 0 0 0 0 0 0 0 0 0 0 0 0 0 0 0 0 0 0 0 0 0 0 0 0 0 0 0 0 0 0 0 0 0 0 0 0 0 0 0 0 0 0 0 0 0 0 0 0 2
1 0 0 0 0 0 0 0 0 0 0 0 0 0 0 0 0 0 0 0 0 0 0 0 0 0 0 0 0 0 0 0 0 0 0 0 0 0 0 0 0 0 0 0 0 0 0 0 0 0 0 0 0 0 0 0 0 0 0 0 0 0 0 0 0 0 0 0 0 0 0 0 0 0 0 0 0 0 0 0 0 0 0 0 0 0 0 0 0 0 0 0 0 0 0 0 0 0 0 0 0 2
1 0 0 0 0 0 0 0 0 0 0 0 0 0 0 0 0 0 0 0 0 0 0 0 0 0 0 0 0 0 0 0 0 0 0 0 0 0 0 0 0 0 0 0 0 0 0 0 0 0 0 0 0 0 0 0 0 0 0 0 0 0 0 0 0 0 0 0 0 0 0 0 0 0 0 0 0 0 0 0 0 0 0 0 0 0 0 0 0 0 0 0 0 0 0 0 0 0 0 0 0 2
1 0 0 0 0 0 0 0 0 0 0 0 0 0 0 0 0 0 0 0 0 0 0 0 0 0 0 0 0 0 0 0 0 0 0 0 0 0 0 0 0 0 0 0 0 0 0 0 0 0 0 0 0 0 0 0 0 0 0 0 0 0 0 0 0 0 0 0 0 0 0 0 0 0 0 0 0 0 0 0 0 0 0 0 0 0 0 0 0 0 0 0 0 0 0 0 0 0 0 0 0 2
1 0 0 0 0 3 3 3 0 0 0 0 0 0 0 3 3 3 0 0 0 0 0 0 0 3 3 3 0 0 0 0 0 0 0 3 3 3 0 0 0 0 0 0 0 3 3 3 0 0 0 0 0 0 0 3 3 3 0 0 0 0 0 0 0 3 3 3 0 0 0 0 0 0 0 3 3 3 0 0 0 0 0 0 0 3 3 3 0 0 0 0 0 0 0 3 3 3 0 0 0 2
1 0 0 0 0 3 3 3 0 0 0 0 0 0 0 3 3 3 0 0 0 0 0 0 0 3 3 3 0 0 0 0 0 0 0 3 3 3 0 0 0 0 0 0 0 3 3 3 0 0 0 0 0 0 0 3 3 3 0 0 0 0 0 0 0 3 3 3 0 0 0 0 0 0 0 3 3 3 0 0 0 0 0 0 0 3 3 3 0 0 0 0 0 0 0 3 3 3 0 0 0 2
1 0 0 0 0 3 3 3 0 0 0 0 0 0 0 3 3 3 0 0 0 0 0 0 0 3 3 3 0 0 0 0 0 0 0 3 3 3 0 0 0 0 0 0 0 3 3 3 0 0 0 0 0 0 0 3 3 3 0 0 0 0 0 0 0 3 3 3 0 0 0 0 0 0 0 3 3 3 0 0 0 0 0 0 0 3 3 3 0 0 0 0 0 0 0 3 3 3 0 0 0 2
1 0 0 0 0 0 0 0 0 0 0 0 0 0 0 0 0 0 0 0 0 0 0 0 0 0 0 0 0 0 0 0 0 0 0 0 0 0 0 0 0 0 0 0 0 0 0 0 0 0 0 0 0 0 0 0 0 0 0 0 0 0 0 0 0 0 0 0 0 0 0 0 0 0 0 0 0 0 0 0 0 0 0 0 0 0 0 0 0 0 0 0 0 0 0 0 0 0 0 0 0 2
1 0 0 0 0 0 0 0 0 0 0 0 0 0 0 0 0 0 0 0 0 0 0 0 0 0 0 0 0 0 0 0 0 0 0 0 0 0 0 0 0 0 0 0 0 0 0 0 0 0 0 0 0 0 0 0 0 0 0 0 0 0 0 0 0 0 0 0 0 0 0 0 0 0 0 0 0 0 0 0 0 0 0 0 0 0 0 0 0 0 0 0 0 0 0 0 0 0 0 0 0 2
1 0 0 0 0 0 0 0 0 0 0 0 0 0 0 0 0 0 0 0 0 0 0 0 0 0 0 0 0 0 0 0 0 0 0 0 0 0 0 0 0 0 0 0 0 0 0 0 0 0 0 0 0 0 0 0 0 0 0 0 0 0 0 0 0 0 0 0 0 0 0 0 0 0 0 0 0 0 0 0 0 0 0 0 0 0 0 0 0 0 0 0 0 0 0 0 0 0 0 0 0 2
3 3 3 3 3 3 3 3 3 3 3 3 3 3 3 3 3 3 3 3 3 3 3 3 3 3 3 3 3 3 3 3 3 3 3 3 3 3 3 3 3 3 3 3 3 3 3 3 3 3 3 3 3 3 3 3 3 3 3 3 3 3 3 3 3 3 3 3 3 3 3 3 3 3 3 3 3 3 3 3 3 3 3 3 3 3 3 3 3 3 3 3 3 3 3 3 3 3 3 3 3 3
